svg/design/vector_bezier_3_line.svg

<?xml version="1.0" encoding="UTF-8"?>
<svg width="24px" height="24px" viewBox="0 0 24 24" version="1.1" xmlns="http://www.w3.org/2000/svg" xmlns:xlink="http://www.w3.org/1999/xlink">
    <title>vector_bezier_3_line</title>
    <g id="页面-1" stroke="none" stroke-width="1" fill="none" fill-rule="evenodd">
        <g id="Design" transform="translate(-720.000000, 0.000000)">
            <g id="vector_bezier_3_line" transform="translate(720.000000, 0.000000)">
                 <path d="M24,0 L24,24 L0,24 L0,0 L24,0 Z M12.5934901,23.257841 L12.5819402,23.2595131 L12.5108777,23.2950439 L12.4918791,23.2987469 L12.4918791,23.2987469 L12.4767152,23.2950439 L12.4056548,23.2595131 C12.3958229,23.2563662 12.3870493,23.2590235 12.3821421,23.2649074 L12.3780323,23.275831 L12.360941,23.7031097 L12.3658947,23.7234994 L12.3769048,23.7357139 L12.4804777,23.8096931 L12.4953491,23.8136134 L12.4953491,23.8136134 L12.5071152,23.8096931 L12.6106902,23.7357139 L12.6232938,23.7196733 L12.6232938,23.7196733 L12.6266527,23.7031097 L12.609561,23.275831 C12.6075724,23.2657013 12.6010112,23.2592993 12.5934901,23.257841 L12.5934901,23.257841 Z M12.8583906,23.1452862 L12.8445485,23.1473072 L12.6598443,23.2396597 L12.6498822,23.2499052 L12.6498822,23.2499052 L12.6471943,23.2611114 L12.6650943,23.6906389 L12.6699349,23.7034178 L12.6699349,23.7034178 L12.678386,23.7104931 L12.8793402,23.8032389 C12.8914285,23.8068999 12.9022333,23.8029875 12.9078286,23.7952264 L12.9118235,23.7811639 L12.8776777,23.1665331 C12.8752882,23.1545897 12.8674102,23.1470016 12.8583906,23.1452862 L12.8583906,23.1452862 Z M12.1430473,23.1473072 C12.1332178,23.1423925 12.1221763,23.1452606 12.1156365,23.1525954 L12.1099173,23.1665331 L12.0757714,23.7811639 C12.0751323,23.7926639 12.0828099,23.8018602 12.0926481,23.8045676 L12.108256,23.8032389 L12.3092106,23.7104931 L12.3186497,23.7024347 L12.3186497,23.7024347 L12.3225043,23.6906389 L12.340401,23.2611114 L12.337245,23.2485176 L12.337245,23.2485176 L12.3277531,23.2396597 L12.1430473,23.1473072 Z" id="MingCute" fill-rule="nonzero"></path>
                <path d="M7,3 C8.05436227,3 8.91816517,3.81587733 8.99451427,4.85073759 L9,5 L15,5 C15,3.94563773 15.81585,3.08183483 16.8507339,3.00548573 L17,3 L19,3 C20.0543909,3 20.9181678,3.81587733 20.9945144,4.85073759 L21,5 L21,7 C21,8.05436227 20.18415,8.91816517 19.1492661,8.99451427 L19,9 L19,15 C20.0543909,15 20.9181678,15.81585 20.9945144,16.8507339 L21,17 L21,19 C21,20.0543909 20.18415,20.9181678 19.1492661,20.9945144 L19,21 L17,21 C15.9456091,21 15.0818322,20.18415 15.0054856,19.1492661 L15,19 L9,19 C9,20.0543909 8.18412267,20.9181678 7.14926241,20.9945144 L7,21 L5,21 C3.94563773,21 3.08183483,20.18415 3.00548573,19.1492661 L3,19 L3,17 C3,15.9456091 3.81587733,15.0818322 4.85073759,15.0054856 L5,15 L5,9 C3.94563773,9 3.08183483,8.18412267 3.00548573,7.14926241 L3,7 L3,5 C3,3.94563773 3.81587733,3.08183483 4.85073759,3.00548573 L5,3 L7,3 Z M7,17 L5,17 L5,19 L7,19 L7,17 Z M19,17 L17,17 L17,19 L19,19 L19,17 Z M15,7 L9,7 C9,8.05436227 8.18412267,8.91816517 7.14926241,8.99451427 L7,9 L7,15 C8.05436227,15 8.91816517,15.81585 8.99451427,16.8507339 L9,17 L15,17 C15,15.9456091 15.81585,15.0818322 16.8507339,15.0054856 L17,15 L17,9 C15.9456091,9 15.0818322,8.18412267 15.0054856,7.14926241 L15,7 Z M7,5 L5,5 L5,7 L7,7 L7,5 Z M19,5 L17,5 L17,7 L19,7 L19,5 Z" id="形状" fill="#09244B"></path>
            </g>
        </g>
    </g>
</svg>

<svg xmlns="http://www.w3.org/2000/svg" width="24" height="24"><g fill="none" fill-rule="evenodd"><path d="M24 0v24H0V0h24ZM12.593 23.258l-.011.002-.071.035-.02.004-.014-.004-.071-.035c-.01-.004-.019-.001-.024.005l-.004.01-.017.428.005.02.01.013.104.074.015.004.012-.004.104-.074.012-.016.004-.017-.017-.427c-.002-.01-.009-.017-.017-.018Zm.265-.113-.013.002-.185.093-.01.01-.003.011.018.43.005.012.008.007.201.093c.012.004.023 0 .029-.008l.004-.014-.034-.614c-.003-.012-.01-.02-.02-.022Zm-.715.002a.023.023 0 0 0-.027.006l-.006.014-.034.614c0 .012.007.02.017.024l.015-.002.201-.093.01-.008.004-.011.017-.43-.003-.012-.01-.01-.184-.092Z"/><path fill="#09244B" d="M7 3a2 2 0 0 1 1.995 1.85L9 5h6a2 2 0 0 1 1.85-1.995L17 3h2a2 2 0 0 1 1.995 1.85L21 5v2a2 2 0 0 1-1.85 1.995L19 9v6a2 2 0 0 1 1.995 1.85L21 17v2a2 2 0 0 1-1.85 1.995L19 21h-2a2 2 0 0 1-1.995-1.85L15 19H9a2 2 0 0 1-1.85 1.995L7 21H5a2 2 0 0 1-1.995-1.85L3 19v-2a2 2 0 0 1 1.85-1.995L5 15V9a2 2 0 0 1-1.995-1.85L3 7V5a2 2 0 0 1 1.85-1.995L5 3h2Zm0 14H5v2h2v-2Zm12 0h-2v2h2v-2ZM15 7H9a2 2 0 0 1-1.85 1.995L7 9v6a2 2 0 0 1 1.995 1.85L9 17h6a2 2 0 0 1 1.85-1.995L17 15V9a2 2 0 0 1-1.995-1.85L15 7ZM7 5H5v2h2V5Zm12 0h-2v2h2V5Z"/></g></svg>
